public/img/logo.svg

<svg xmlns="http://www.w3.org/2000/svg" xmlns:xlink="http://www.w3.org/1999/xlink" viewBox="0 0 2053.98 1272.39"><defs><style>.cls-1{fill:url(#Безымянный_градиент_6);}.cls-2{fill:url(#Безымянный_градиент_6-2);}.cls-3{fill:url(#Безымянный_градиент_6-3);}.cls-4{fill:url(#Безымянный_градиент_6-4);}.cls-5{fill:url(#Безымянный_градиент_6-5);}.cls-6{fill:#fff;}.cls-7{fill:#2b2b2b;}.cls-8{fill:url(#Безымянный_градиент_6-6);}.cls-9{fill:#0d4e89;}.cls-10{fill:none;stroke:#000;stroke-miterlimit:10;}</style><linearGradient id="Безымянный_градиент_6" x1="604.64" y1="1143.8" x2="604.64" y2="1109.02" gradientUnits="userSpaceOnUse"><stop offset="0.03" stop-color="#fff"/><stop offset="0.93" stop-color="#94cff2"/></linearGradient><linearGradient id="Безымянный_градиент_6-2" x1="820.18" y1="1257.5" x2="820.18" y2="818.94" xlink:href="#Безымянный_градиент_6"/><linearGradient id="Безымянный_градиент_6-3" x1="1032.55" y1="1184.71" x2="1032.55" y2="881.99" xlink:href="#Безымянный_градиент_6"/><linearGradient id="Безымянный_градиент_6-4" x1="1235.84" y1="1078.17" x2="1235.84" y2="811.67" xlink:href="#Безымянный_градиент_6"/><linearGradient id="Безымянный_градиент_6-5" x1="989.55" y1="924.08" x2="989.55" y2="-177.67" xlink:href="#Безымянный_градиент_6"/><linearGradient id="Безымянный_градиент_6-6" x1="1038.08" y1="675.3" x2="1038.08" y2="460.3" xlink:href="#Безымянный_градиент_6"/></defs><g id="Слой_2" data-name="Слой 2"><g id="Слой_1-2" data-name="Слой 1"><path class="cls-1" d="M570.31,1114.63c31.41,15.92,58.37,28.17,68.67,29.17,0,0-13.85-.55-38.44-4.24Q585,1127.55,570.31,1114.63Z"/><path class="cls-2" d="M769,1042.8s216.83,126.44,465.48,180.67a630.72,630.72,0,0,1-107.76,34c-137-22-312.37-72.3-526.07-175.65,0,0-48.78-33.35-122-66.65a635.43,635.43,0,0,1-72.7-125.54C483.18,904.72,606.39,943.69,769,1042.8Z"/><path class="cls-3" d="M669,930.81c3.15,1.37,349.74,151.87,727.1,194.67a636.32,636.32,0,0,1-84.18,59.23h0C1134.53,1149.66,921.55,1073,669,930.81Z"/><path class="cls-4" d="M1490.48,973.3c-19,11-152,33-152,33,26,8,158-11,158-11q-4.56,2.44-9.53,4.81,12.54-.08,24.73-.42a638.42,638.42,0,0,1-64.61,78.48c-91.67-7.27-155.34-22.87-155.34-22.87,95.21-6.78,189.21-52.24,194.94-55.06-71.84,34.09-202.19,55.06-202.19,55.06-102-5-400-100-400-100,310.4,1.08,548.75-51.68,702.73-100.65A633.45,633.45,0,0,1,1530.55,971Z"/><path class="cls-5" d="M1625.72,636.16q0,3.36,0,6.7-.08,7.8-.34,15.54-.36,10.5-1.06,20.9-2,29.26-6.51,57.77c-.43,2.64-.87,5.29-1.32,7.92q-5.39,31.23-13.75,61.36c-81.82,27.09-201.94,58.47-375.22,87.95l-516-92s336,98,439,101c0,0-129,28-404,19l-222-62,.17-.32L517,863.85l2.43,1.44c-1.21-.39-58-18.92-134-29q-4.65-14.07-8.67-28.42a641.94,641.94,0,0,1-16.09-268.75q4.42-28.87,11.4-56.88C441,205.26,691.28,0,989.56,0,1169,0,1331.1,74.3,1446.75,193.81q13.55,14,26.24,28.81a633.94,633.94,0,0,1,152.73,413.54Z"/><path class="cls-6" d="M956.48,494.3l-82,7c-21,0-80,8-80,8-18,6-155,7-155,7-49,11-161,12-161,12-12,0-76,10-76,10l-41.74.82q4.42-28.87,11.4-56.88c50.54,6.06,210.34,6.06,210.34,6.06C596.48,491.3,956.48,494.3,956.48,494.3Z"/><path class="cls-6" d="M1565.6,365.85c-35.17,1.5-141.92,5.2-231.34-.55,0,0-342.78-15-503.78-9L623,354.88s28.5-4.58,101.5-9.58c0,0,58.15-1.79,80.53-7.06,1.28-.3,2.44-.62,3.47-.94,19-6,121-10,165-8,0,0,226-3,320-19,0,0,64-4,100-10,0,0,54.92-5.23,132.2-6.74A633.29,633.29,0,0,1,1565.6,365.85Z"/><path class="cls-6" d="M1473,222.62c-85.52-1.84-173.85-2.62-235.51-.32L1030,220.88s28.5-4.58,101.5-9.58c0,0,58.15-1.79,80.53-7.06,1.28-.3,2.44-.62,3.47-.94,19-6,121-10,165-8,0,0,27-.36,66.27-1.49Q1460.3,207.8,1473,222.62Z"/><path class="cls-7" d="M1762.48,734.3s-36.2,31.13-159.78,72.05c-81.82,27.09-201.94,58.47-375.22,87.95l-516-92s336,98,439,101c0,0-129,28-404,19l-222-62,.17-.32c2.49-4.68,32.92-59.58,101.83-79.68,0,0-46-33-35-62,0,0-15-29,88-26l162,23-30,68,23-7.11s40-90.89,55-98.89l-87-33s-57-31-23-90l23.35-46.1,7.77-15.35,46.88-92.55s10.91-31.65,44-45.36c11.71-4.86,26.21-7.47,44-5.64,0,0,11.34-8.82,10.51-20.46a19,19,0,0,0-3.51-9.54s-28-63,40-85c0,0,25-5,54,12,0,0,16,17,65,15,0,0-7,19-45,20,0,0-11,2-1,10,0,0,4,5,0,10,0,0-13,10-7,19a50.71,50.71,0,0,1,5.64,6.76,7,7,0,0,1,1.36,3.24s1,6-11,6c0,0-8.82,3.78-12,19.85a67.06,67.06,0,0,0-1,15.15s-4,4-13,0c0,0-23-12-33,0,0,0-8,8-7,19,0,0-9,53,90,72,0,0,51,1,60,11,0,0,15,15,22,24,0,0,59,52,88,39,0,0,10-7-12-18,0,0,55-4,75,38,0,0-45-12-63,2,0,0-13,6,0,11,0,0,124,4,184,14,0,0,81,25,18-8,0,0-26-19,74,18,0,0,76.88,32.86,101.2,49.56,5.69,3.9,8.5,6.92,6.8,8.44,0,0,2.15,4.29-7.14,7.1-7.48,2.27-22.4,3.58-51.86.9,0,0-7,3,0,7,0,0,12.23,8.89,50.8,13a414.8,414.8,0,0,0,49.2,2V667.8s75,54.5,78,59.5C1751.48,727.3,1754.48,732.3,1762.48,734.3Z"/><path class="cls-7" d="M1273.48,516.3s38,10,47,39l87,7s-36-38-93-48Z"/><path class="cls-8" d="M1183.48,675.3s-46-18-84-23c0,0-28,6-48,22,0,0,23-38-14-65,0,0-71-45-141-50,0,0-7,2-2-18l15-45s11-25,19-36c0,0,26,38,92,40,0,0,16,2,38-4,0,0,8,20,34,21,0,0,13,3,24-6l58,50s-97-2-100,22c0,0-10,24,25,61C1099.48,644.3,1148.48,655.3,1183.48,675.3Z"/><path class="cls-6" d="M1636.48,763.3s-158-157-342-172C1294.48,591.3,1522.48,586.3,1636.48,763.3Z"/><path class="cls-7" d="M1789.48,773.3c-7,35-43,64-43,64-24,26-41,15-41,15-10-9-22,17-22,17-55,92-140,101-140,101l-12.93.73-40.07,2.27c-19,11-152,33-152,33,26,8,158-11,158-11q-4.56,2.44-9.53,4.81l-.07,0-.21.1c-71.84,34.09-202.19,55.06-202.19,55.06-102-5-400-100-400-100,310.4,1.08,548.75-51.68,702.73-100.65C1719.46,812.58,1789.48,773.3,1789.48,773.3Z"/><path class="cls-9" d="M2037.48,720.3c-19,374-492.5,361.5-492.5,361.5-34.81.25-67.86-1.24-97.91-3.63-91.67-7.27-155.34-22.87-155.34-22.87,95.21-6.78,189.21-52.24,194.94-55.06l.21-.1.07,0q12.54-.08,24.73-.42C1936.78,987.41,2037.48,720.3,2037.48,720.3Z"/><path class="cls-9" d="M2054,1022.8s-212.17,266.62-742.06,161.91h0c-177.38-35-390.36-111.7-642.91-253.9,3.15,1.37,349.74,151.87,727.1,194.67C1628,1151.78,1871.43,1137.41,2054,1022.8Z"/><path class="cls-9" d="M1494,1245.8s-122.41,51-367.28,11.7c-137-22-312.37-72.3-526.07-175.65,0,0-48.78-33.35-122-66.65C350.51,957,147.6,898.92,0,1019.78c1.53-2.1,100.64-136,312-139,0,0,32.41-3.14,93.92,8.86,77.28,15.06,200.49,54,363.08,153.14,0,0,216.83,126.44,465.48,180.67C1319.71,1242.07,1408.7,1252.18,1494,1245.8Z"/><path class="cls-9" d="M639,1143.8s-13.85-.55-38.44-4.24c-49.3-7.4-141.81-27.38-252.56-80.76,0,0-123-77-294-40,0,0,55-43,165-37,0,0,97-3,207,54,0,0,81.17,46.83,144.33,78.83C601.72,1130.55,628.68,1142.8,639,1143.8Z"/><path class="cls-9" d="M519.46,865.29c-1.21-.39-58-18.92-134-29-75.42-10-169.69-11.7-247,21,1.15-1,89.38-79.72,238.34-49.42,42.08,8.56,89,25.82,140.2,56Z"/><polyline class="cls-10" points="517.03 863.85 524.65 859.98 526.98 858.8"/></g></g></svg>

<svg width="2054" height="1273" viewBox="0 0 2054 1273" fill="none" xmlns="http://www.w3.org/2000/svg">
<path d="M570.3 1114.6C601.7 1130.5 628.7 1142.8 639 1143.8C639 1143.8 625.2 1143.2 600.6 1139.6C590.2 1131.6 580.1 1123.2 570.3 1114.6Z" fill="url(#paint0_linear_328_13)"/>
<path d="M769 1042.8C769 1042.8 985.8 1169.2 1234.5 1223.5C1200 1237.9 1164 1249.4 1126.7 1257.5C989.7 1235.5 814.3 1185.2 600.6 1081.9C600.6 1081.9 551.8 1048.5 478.6 1015.2C449.8 976.5 425.4 934.4 405.9 889.7C483.2 904.7 606.4 943.7 769 1042.8Z" fill="url(#paint1_linear_328_13)"/>
<path d="M669 930.8C672.1 932.2 1018.7 1082.7 1396.1 1125.5C1369.8 1147.4 1341.6 1167.3 1311.9 1184.7C1134.5 1149.7 921.6 1073 669 930.8Z" fill="url(#paint2_linear_328_13)"/>
<path d="M1490.5 973.3C1471.5 984.3 1338.5 1006.3 1338.5 1006.3C1364.5 1014.3 1496.5 995.3 1496.5 995.3C1493.5 996.9 1490.3 998.5 1487 1000.1C1495.4 1000 1503.6 999.9 1511.7 999.7C1492.3 1027.6 1470.6 1053.8 1447.1 1078.2C1355.4 1070.9 1291.8 1055.3 1291.8 1055.3C1387 1048.5 1481 1003.1 1486.7 1000.2C1414.9 1034.3 1284.5 1055.3 1284.5 1055.3C1182.5 1050.3 884.5 955.3 884.5 955.3C1194.9 956.4 1433.3 903.6 1587.2 854.6C1572.2 895.5 1553.2 934.5 1530.5 971L1490.5 973.3Z" fill="url(#paint3_linear_328_13)"/>
<path d="M1625.7 636.2C1625.7 638.4 1625.7 640.7 1625.7 642.9C1625.7 648.1 1625.5 653.3 1625.4 658.4C1625.2 665.4 1624.8 672.4 1624.3 679.3C1623 698.8 1620.8 718.1 1617.8 737.1C1617.4 739.7 1616.9 742.4 1616.5 745C1612.9 765.8 1608.3 786.3 1602.7 806.4C1520.9 833.5 1400.8 864.9 1227.5 894.3L711.5 802.3C711.5 802.3 1047.5 900.3 1150.5 903.3C1150.5 903.3 1021.5 931.3 746.5 922.3L524.5 860.3C524.5 860.3 524.6 860.2 524.7 860L517.1 863.9C517.9 864.4 518.7 864.8 519.5 865.3C518.3 864.9 461.5 846.4 385.5 836.3C382.4 826.9 379.5 817.5 376.8 807.9C361.5 753.3 353.4 695.7 353.4 636.2C353.4 603.2 355.9 570.8 360.8 539.2C363.8 520 367.6 501 372.2 482.3C441 205.3 691.3 0 989.6 0C1169 0 1331.1 74.3 1446.8 193.8C1455.8 203.1 1464.6 212.7 1473 222.6C1492.1 244.9 1509.8 268.7 1525.7 293.5C1540.5 316.6 1553.9 340.8 1565.6 365.8C1604.2 447.9 1625.7 539.5 1625.7 636.2Z" fill="url(#paint4_linear_328_13)"/>
<path d="M956.5 494.3L874.5 501.3C853.5 501.3 794.5 509.3 794.5 509.3C776.5 515.3 639.5 516.3 639.5 516.3C590.5 527.3 478.5 528.3 478.5 528.3C466.5 528.3 402.5 538.3 402.5 538.3L360.8 539.1C363.8 519.9 367.6 500.9 372.2 482.2C422.7 488.3 582.5 488.3 582.5 488.3C596.5 491.3 956.5 494.3 956.5 494.3Z" fill="white"/>
<path d="M1565.6 365.9C1530.4 367.4 1423.7 371.1 1334.3 365.4C1334.3 365.4 991.5 350.4 830.5 356.4L623 354.9C623 354.9 651.5 350.3 724.5 345.3C724.5 345.3 782.6 343.5 805 338.2C806.3 337.9 807.4 337.6 808.5 337.3C827.5 331.3 929.5 327.3 973.5 329.3C973.5 329.3 1199.5 326.3 1293.5 310.3C1293.5 310.3 1357.5 306.3 1393.5 300.3C1393.5 300.3 1448.4 295.1 1525.7 293.6C1540.5 316.7 1553.8 340.8 1565.6 365.9Z" fill="white"/>
<path d="M1473 222.6C1387.5 220.8 1299.2 220 1237.5 222.3L1030 220.9C1030 220.9 1058.5 216.3 1131.5 211.3C1131.5 211.3 1189.6 209.5 1212 204.2C1213.3 203.9 1214.4 203.6 1215.5 203.3C1234.5 197.3 1336.5 193.3 1380.5 195.3C1380.5 195.3 1407.5 194.9 1446.8 193.8C1455.8 203.1 1464.5 212.8 1473 222.6Z" fill="white"/>
<path d="M1762.5 734.3C1762.5 734.3 1726.3 765.4 1602.7 806.4C1520.9 833.5 1400.8 864.9 1227.5 894.3L711.5 802.3C711.5 802.3 1047.5 900.3 1150.5 903.3C1150.5 903.3 1021.5 931.3 746.5 922.3L524.5 860.3C524.5 860.3 524.6 860.2 524.7 860C527.2 855.3 557.6 800.4 626.5 780.3C626.5 780.3 580.5 747.3 591.5 718.3C591.5 718.3 576.5 689.3 679.5 692.3L841.5 715.3L811.5 783.3L834.5 776.2C834.5 776.2 874.5 685.3 889.5 677.3L802.5 644.3C802.5 644.3 745.5 613.3 779.5 554.3L802.8 508.2L810.6 492.9L857.5 400.3C857.5 400.3 868.4 368.7 901.5 354.9C913.2 350 927.7 347.4 945.5 349.3C945.5 349.3 956.8 340.5 956 328.8C955.8 325.8 954.8 322.6 952.5 319.3C952.5 319.3 924.5 256.3 992.5 234.3C992.5 234.3 1017.5 229.3 1046.5 246.3C1046.5 246.3 1062.5 263.3 1111.5 261.3C1111.5 261.3 1104.5 280.3 1066.5 281.3C1066.5 281.3 1055.5 283.3 1065.5 291.3C1065.5 291.3 1069.5 296.3 1065.5 301.3C1065.5 301.3 1052.5 311.3 1058.5 320.3C1058.5 320.3 1062.1 323.9 1064.1 327.1C1064.9 328.3 1065.5 329.5 1065.5 330.3C1065.5 330.3 1066.5 336.3 1054.5 336.3C1054.5 336.3 1045.7 340.1 1042.5 356.2C1041.7 360.4 1041.3 365.4 1041.5 371.3C1041.5 371.3 1037.5 375.3 1028.5 371.3C1028.5 371.3 1005.5 359.3 995.5 371.3C995.5 371.3 987.5 379.3 988.5 390.3C988.5 390.3 979.5 443.3 1078.5 462.3C1078.5 462.3 1129.5 463.3 1138.5 473.3C1138.5 473.3 1153.5 488.3 1160.5 497.3C1160.5 497.3 1219.5 549.3 1248.5 536.3C1248.5 536.3 1258.5 529.3 1236.5 518.3C1236.5 518.3 1291.5 514.3 1311.5 556.3C1311.5 556.3 1266.5 544.3 1248.5 558.3C1248.5 558.3 1235.5 564.3 1248.5 569.3C1248.5 569.3 1372.5 573.3 1432.5 583.3C1432.5 583.3 1513.5 608.3 1450.5 575.3C1450.5 575.3 1424.5 556.3 1524.5 593.3C1524.5 593.3 1601.4 626.2 1625.7 642.9C1631.4 646.8 1634.2 649.8 1632.5 651.3C1632.5 651.3 1634.7 655.6 1625.4 658.4C1617.9 660.7 1603 662 1573.5 659.3C1573.5 659.3 1566.5 662.3 1573.5 666.3C1573.5 666.3 1585.7 675.2 1624.3 679.3C1637.4 680.7 1653.7 681.5 1673.5 681.3V667.8C1673.5 667.8 1748.5 722.3 1751.5 727.3C1751.5 727.3 1754.5 732.3 1762.5 734.3Z" fill="#2B2B2B"/>
<path d="M1273.5 516.3C1273.5 516.3 1311.5 526.3 1320.5 555.3L1407.5 562.3C1407.5 562.3 1371.5 524.3 1314.5 514.3L1273.5 516.3Z" fill="#2B2B2B"/>
<path d="M1183.5 675.3C1183.5 675.3 1137.5 657.3 1099.5 652.3C1099.5 652.3 1071.5 658.3 1051.5 674.3C1051.5 674.3 1074.5 636.3 1037.5 609.3C1037.5 609.3 966.5 564.3 896.5 559.3C896.5 559.3 889.5 561.3 894.5 541.3L909.5 496.3C909.5 496.3 920.5 471.3 928.5 460.3C928.5 460.3 954.5 498.3 1020.5 500.3C1020.5 500.3 1036.5 502.3 1058.5 496.3C1058.5 496.3 1066.5 516.3 1092.5 517.3C1092.5 517.3 1105.5 520.3 1116.5 511.3L1174.5 561.3C1174.5 561.3 1077.5 559.3 1074.5 583.3C1074.5 583.3 1064.5 607.3 1099.5 644.3C1099.5 644.3 1148.5 655.3 1183.5 675.3Z" fill="url(#paint5_linear_328_13)"/>
<path d="M1636.5 763.3C1636.5 763.3 1478.5 606.3 1294.5 591.3C1294.5 591.3 1522.5 586.3 1636.5 763.3Z" fill="white"/>
<path d="M1789.5 773.3C1782.5 808.3 1746.5 837.3 1746.5 837.3C1722.5 863.3 1705.5 852.3 1705.5 852.3C1695.5 843.3 1683.5 869.3 1683.5 869.3C1628.5 961.3 1543.5 970.3 1543.5 970.3L1530.6 971L1490.5 973.3C1471.5 984.3 1338.5 1006.3 1338.5 1006.3C1364.5 1014.3 1496.5 995.3 1496.5 995.3C1493.5 996.9 1490.3 998.5 1487 1000.1C1487 1000.1 1487 1000.1 1486.9 1000.1C1486.8 1000.1 1486.8 1000.2 1486.7 1000.2C1414.9 1034.3 1284.5 1055.3 1284.5 1055.3C1182.5 1050.3 884.5 955.3 884.5 955.3C1194.9 956.4 1433.3 903.6 1587.2 854.6C1719.5 812.6 1789.5 773.3 1789.5 773.3Z" fill="#2B2B2B"/>
<path d="M2037.5 720.3C2018.5 1094.3 1545 1081.8 1545 1081.8C1510.2 1082 1477.1 1080.6 1447.1 1078.2C1355.4 1070.9 1291.8 1055.3 1291.8 1055.3C1387 1048.5 1481 1003.1 1486.7 1000.2C1486.8 1000.2 1486.9 1000.1 1486.9 1000.1H1487C1495.4 1000 1503.6 999.9 1511.7 999.7C1936.8 987.4 2037.5 720.3 2037.5 720.3Z" fill="#0D4E89"/>
<path d="M2054 1022.8C2054 1022.8 1841.8 1289.4 1311.9 1184.7C1134.5 1149.7 921.5 1073 669 930.8C672.1 932.2 1018.7 1082.7 1396.1 1125.5C1628 1151.8 1871.4 1137.4 2054 1022.8Z" fill="#0D4E89"/>
<path d="M1494 1245.8C1494 1245.8 1371.6 1296.8 1126.7 1257.5C989.7 1235.5 814.3 1185.2 600.6 1081.9C600.6 1081.9 551.8 1048.5 478.6 1015.2C350.5 957 147.6 898.9 0 1019.8C1.5 1017.7 100.6 883.8 312 880.8C312 880.8 344.4 877.7 405.9 889.7C483.2 904.8 606.4 943.7 769 1042.8C769 1042.8 985.8 1169.2 1234.5 1223.5C1319.7 1242.1 1408.7 1252.2 1494 1245.8Z" fill="#0D4E89"/>
<path d="M639 1143.8C639 1143.8 625.2 1143.2 600.6 1139.6C551.3 1132.2 458.8 1112.2 348 1058.8C348 1058.8 225 981.8 54 1018.8C54 1018.8 109 975.8 219 981.8C219 981.8 316 978.8 426 1035.8C426 1035.8 507.2 1082.6 570.3 1114.6C601.7 1130.6 628.7 1142.8 639 1143.8Z" fill="#0D4E89"/>
<path d="M519.5 865.3C518.3 864.9 461.5 846.4 385.5 836.3C310.1 826.3 215.8 824.6 138.5 857.3C139.6 856.3 227.9 777.6 376.8 807.9C418.9 816.5 465.8 833.7 517 863.9C517.8 864.3 518.6 864.8 519.5 865.3Z" fill="#0D4E89"/>
<defs>
<linearGradient id="paint0_linear_328_13" x1="604.645" y1="1143.8" x2="604.645" y2="1109.02" gradientUnits="userSpaceOnUse">
<stop offset="0.0333636" stop-color="white"/>
<stop offset="0.9331" stop-color="#94CFF2"/>
</linearGradient>
<linearGradient id="paint1_linear_328_13" x1="820.18" y1="1257.5" x2="820.18" y2="818.937" gradientUnits="userSpaceOnUse">
<stop offset="0.0333636" stop-color="white"/>
<stop offset="0.9331" stop-color="#94CFF2"/>
</linearGradient>
<linearGradient id="paint2_linear_328_13" x1="1032.55" y1="1184.71" x2="1032.55" y2="881.994" gradientUnits="userSpaceOnUse">
<stop offset="0.0333636" stop-color="white"/>
<stop offset="0.9331" stop-color="#94CFF2"/>
</linearGradient>
<linearGradient id="paint3_linear_328_13" x1="1235.84" y1="1078.17" x2="1235.84" y2="811.675" gradientUnits="userSpaceOnUse">
<stop offset="0.0333636" stop-color="white"/>
<stop offset="0.9331" stop-color="#94CFF2"/>
</linearGradient>
<linearGradient id="paint4_linear_328_13" x1="989.555" y1="924.083" x2="989.555" y2="-177.67" gradientUnits="userSpaceOnUse">
<stop offset="0.0333636" stop-color="white"/>
<stop offset="0.9331" stop-color="#94CFF2"/>
</linearGradient>
<linearGradient id="paint5_linear_328_13" x1="1038.08" y1="675.3" x2="1038.08" y2="460.3" gradientUnits="userSpaceOnUse">
<stop offset="0.0333636" stop-color="white"/>
<stop offset="0.9331" stop-color="#94CFF2"/>
</linearGradient>
</defs>
</svg>
